!!! OTL: Berkowitz87
!!! Chapter: 1
!!! Section: I
!!! Page: 22
!!! Mode: 
!!! Encoder: DJB
**kern
*staff1
*I"Piano
=1-
*clefF4
*k[b-e-a-d-]
*A-:
*M4/4
4AA-/
4C/
4E-\
4r
=2
8AA-/L
8BB-/
8C/
8D-/J
4E-\
4r
=3
8D-\L
8E-\
8F\
8G\J
4A-\
8G\L
8F\J
=4
4E-\
4D-\
4C/
4BB-/
=5
4C/
4AA-/
4E-\
4r
=6
8D-\L
8E-\
8F\
8G\J
4A-\
4r
=7
8B-\L
8A-\
8G\
8F\J
8E-/L
8D-/
8C/
8BB-/J
=8
!!linebreak:original
4C/
8E-\L
8C\J
4AA-/
4r
==
*-
